X: 20543
T: John McKenna's
R: polka
M: 2/4
K: Gmajor
|:d2 B2|B/A/B/c/ BD|A>B A/F/D/F/|AG G/A/B/c/|
d2 B2|B/A/B/c/ BD|A>B A/F/D/F/|AG G2:|
|:b/a/g/f/ a/g/f/e/|dB B/A/B/c/|dA A/G/A/B/|dG G2|
b/a/g/f/ a/g/f/e/|dB B/A/B/c/|dA A/G/A/B/|~AG G2:|

